resources/svg/regular/align-right.svg

<svg xmlns="http://www.w3.org/2000/svg" fill="currentColor" stroke="none" viewBox="0 0 24 24"><path d="M4 19h16v2H4zm5-4h11v2H9zm-5-4h16v2H4zm0-8h16v2H4zm5 4h11v2H9z"/></svg>

<svg xmlns="http://www.w3.org/2000/svg" fill="currentColor" stroke="none" viewBox="0 0 24 24"><path d="M4 19H20V21H4zM9 15H20V17H9zM4 11H20V13H4zM4 3H20V5H4zM9 7H20V9H9z"/></svg>
